X: 353
T: Bir Dalda İki Kiraz
C: Ahmet Yamacı
O: Turkey
F: http://compmusic.upf.edu/node/140
N: saba--turku--sofyan--bir_dalda--istanbul
N: makam= saba
N: form= turku
N: usul= sofyan = 4/4
M: 4/4
L: 1/16
K: C _2/4B _3/4d  
Q: 1/4=90
%%MIDI tuningsystem comma53
c2cc d2dc BABB cdcB  | ABAG A2B2 c2dd c2B2  | 
w:  ARANAĞME  |   | 
c2cc d2dc BABB cdcB  | A2AA BABc A2AA A2A2  | 
w:   |   | 
c2cc d2dc BABB cdcB  | ABAG A2B2 c2dd c2B2  | 
w:  ARANAĞME  |   | 
c2cc d2dc BABB cdcB  | A2AA BABc A2AA A2A2  | 
w:   |   | 
c4 dcd2 B3G c/d/c/d/c/d/B  | A3/2B/AG A2B2 c2d2 c/d/c/d/B2  | 
w:  Bir  dal *  *  da  *  i  |  ki  *  *  *  ki *  raz    | 
c4 dcdc B4 c/d/c/d/c/d/B  | A4 BABc A6z2  | \
w:  Bi ri  *  *  *  al  bi  |  ri  be *  *  *  yaz    | 
c4 d2dc B3G c/d/c/d/c/d/B  | 
w:  E ğer  *  *  be *  ni   | 
A3/2B/AG A2B2 c2cd c/d/c/d/B2  | c4 d2dc B3G c/d/c/d/c/d/B  | 
w:  se *  *  *  ver *  sen    |  Mek tu *  *  bu *  nu   | 
A4 BABc A6z2  | c4 d2dc B3G c/d/c/d/c/d/B  | \
w:  sık ça  *  *  *  yaz    |  E ğer  *  *  be *  ni   | 
A3/2B/AG A2B2 c2cd c/d/c/d/B2  | 
w:  se *  *  *  ver *  sen    | 
c4 d2dc B3G c/d/c/d/c/d/B  | A4 BABc A6z2  | \
w:  Mek tu *  *  bu *  nu   |  sık ça  *  *  *  yaz    | 
c2c2 dd2{e}c B2B2 c2c{d}B  | 
w:  Sal la sa na  *  *  sal la sa na   | 
A3/2B/AG A2B2 c2cd c/d/c/d/B2  | c2c2 d2dc B2B2 c2c{d}B  | 
w:  men *  *  *  di li ni    |  Ak şam  ol du  *  gön der se ne   | 
A4 BABc A6z2  | c2c2 dd2{e}c B2B2 c2c{d}B  | \
w:  sev di *  ği *  mi    |  Sal la sa na  *  *  sal la sa na   | 
A3/2B/AG A2B2 c2cd c/d/c/d/B2  | 
w:  men *  *  *  di li ni    | 
c2c2 d2dc B2B2 c2c{d}B  | A4 BABc A6z2  | \
w:  Ak şam  ol du  *  gön der se ne   |  sev di *  ği *  mi    | 
c2cc d2dc BABB cdcB  | 
w:  ARANAĞME  | 
ABAG A2B2 c2dd c2B2  | c2cc d2dc BABB cdcB  | 
w:   |   | 
A2AA BABc A2AA A2A2  | c2cc d2dc BABB cdcB  | 
w:   |  ARANAĞME  | 
ABAG A2B2 c2dd c2B2  | c2cc d2dc BABB cdcB  | 
w:   |   | 
A2AA BABc A2AA A2A2  | c4 dcd2 B3G c/d/c/d/c/d/B  | 
w:   |  Bir  dal *  *  da  *  i  | 
A3/2B/AG A2B2 c2d2 c/d/c/d/B2  | c4 dcdc B4 c/d/c/d/c/d/B  | 
w:  ki  *  *  *  ki *  raz    |  Bi ri  *  *  *  al  bi  | 
A4 BABc A6z2  | c4 d2dc B3G c/d/c/d/c/d/B  | \
w:  ri  be *  *  *  yaz    |  E ğer  *  *  be *  ni   | 
A3/2B/AG A2B2 c2cd c/d/c/d/B2  | 
w:  se *  *  *  ver *  sen    | 
c4 d2dc B3G c/d/c/d/c/d/B  | A4 BABc A6z2  | \
w:  Mek tu *  *  bu *  nu   |  sık ça  *  *  *  yaz    | 
c4 d2dc B3G c/d/c/d/c/d/B  | 
w:  E ğer  *  *  be *  ni   | 
A3/2B/AG A2B2 c2cd c/d/c/d/B2  | c4 d2dc B3G c/d/c/d/c/d/B  | 
w:  se *  *  *  ver *  sen    |  Mek tu *  *  bu *  nu   | 
A4 BABc A6z2  | c2c2 dd2{e}c B2B2 c2c{d}B  | \
w:  sık ça  *  *  *  yaz    |  Sal la sa na  *  *  sal la sa na   | 
A3/2B/AG A2B2 c2cd c/d/c/d/B2  | 
w:  men *  *  *  di li ni    | 
c2c2 d2dc B2B2 c2c{d}B  | A4 BABc A6z2  | \
w:  Ak şam  ol du  *  gön der se ne   |  sev di *  ği *  mi    | 
c2c2 dd2{e}c B2B2 c2c{d}B  | 
w:  Sal la sa na  *  *  sal la sa na   | 
A3/2B/AG A2B2 c2cd c/d/c/d/B2  | c2c2 d2dc B2B2 c2c{d}B  | 
w:  men *  *  *  di li ni    |  Ak şam  ol du  *  gön der se ne   | 
A4 BABc A6z2  | |


